X: 279
M: 2/4
L: 1/8
K: G
V: 1
|:\
c2(Ac) | TBABG | cA FD | G2G,2 :|\
|: d2(Bc) | dB ge | d2(Bc) | d2G2 |
g2(eg) | Tfefd | e2^c2 | d=cBA |\
(ce) Ac | (Bd) GB | (Ac) DF | G2G,2 :|
V: 2 clef=bass middle=d
|:\
g2g2 | d2d2 | g2g2 | g2g2 |\
a2f2 | b2e2 | c2d2 | g2G2 :|\
|:\
g2g2 | g2g2 | g2g2 | g2g2 |
e2e2 | d2g2 | a2A2 | d2d2 |\
g2g2 | d2d2 | g2g2 | g2g2 |\
a2f2 | g2e2 | c2d2 | g2G2 :|

